X: 21221
T: the Winding of the stream
%R: air, reel
B: James Oswald "The Caledonian Pocket Companion" v.2 p.122 #1
Z: 2018 John Chambers <jc:trillian.mit.edu>
M: C
L: 1/8
K: Em
"_Slow"B2 |\
e3f {ef}g2(fe) | (e^d)(cB) B3e |\
(=dc)(BA) (GF)(GA) | B2E2 E3f |\
g2g2 (ag)(fe) | {e}d2d2 d2(ef) |\
g3e (dB)(AB) |
G3A B2(gf) |\
e2(dB) (TAG)(AB) | G2E2 z2 :: (Bc) |\
d3c (c2B)=f | (=f2e)^G (G2A)=G |\
(G2F)e (e2d)c | (BA)(GF) G2B2 |
e3f (e/f/)g (fe) | (e^d)(cB) B3e |\
(=dc)(BA) G2(AB) | E3F G2(A/B/)d |\
e2(dB) (TAG)(AB) | G2E2 z2 :|
